X:39
T: FREIHEIT DIE ICH MEINE DIE MEIN HERZ ERFUELLT
N: B0048
O: Europa, Mitteleuropa, Deutschland
R: Kriegs -, Sieges -, Soldaten - Lied
M: 4/4
L: 1/8
K: C
 | G,2E,2C2G,2 | A,4G,2z2
E2C2B,2CE | D4z4
G,2E,2C2G,2 | A,4G,2z2
E2C2B,2CE | D4z4
D3CB,2G,2 | E4C2
DE | F4E4 | D4z4
E2D2C2B,2 | A,2F2E2D2
C4B,4 | C4z4

